X: 23574
T: Lighthouse, The
R: reel
M: 4/4
K: Bdorian
f2 fa fecB|A2 cA EAcA|f3 a f2 df|edcA Bcde|
f2 fa fecB|A2 cA EAcA|dcBd cBAB|cABA FAEA||
d2 ad bdad|d2 ab afef|d2 ad bdad|faab afef|
d2 ad bdad|d2 ab afef|d2 Bc defg|agab afec||

